public/flags/PR.svg

<svg fill="none" height="106" viewBox="0 0 122 106" width="122" xmlns="http://www.w3.org/2000/svg" xmlns:xlink="http://www.w3.org/1999/xlink"><filter id="a" color-interpolation-filters="sRGB" filterUnits="userSpaceOnUse" height="14.9353" width="13.3601" x="4.15332" y="17.1667"><feFlood flood-opacity="0" result="BackgroundImageFix"/><feColorMatrix in="SourceAlpha" type="matrix" values="0 0 0 0 0 0 0 0 0 0 0 0 0 0 0 0 0 0 127 0"/><feOffset dy="2.12143"/><feColorMatrix type="matrix" values="0 0 0 0 0 0 0 0 0 0 0 0 0 0 0 0 0 0 0.06 0"/><feBlend in2="BackgroundImageFix" mode="normal" result="effect1_dropShadow"/><feBlend in="SourceGraphic" in2="effect1_dropShadow" mode="normal" result="shape"/></filter><linearGradient id="b" gradientUnits="userSpaceOnUse" x1="3.80957" x2="3.80957" y1="17.1667" y2="31.3334"><stop offset="0" stop-color="#fff"/><stop offset="1" stop-color="#f0f0f0"/></linearGradient><mask id="c" height="43" maskUnits="userSpaceOnUse" width="59" x="1" y="3"><rect fill="#fff" height="41.4393" rx="3.7125" stroke="#fff" stroke-width="1.06071" width="57.9393" x="1.53036" y="3.53036"/></mask><rect fill="#fff" height="41.4393" rx="3.7125" stroke="#f5f5f5" stroke-width="1.06071" width="57.9393" x="1.53036" y="3.53036"/><g mask="url(#c)"><path clip-rule="evenodd" d="m1 3h59v8.5h-59zm0 17h59v8.5h-59zm0 17v8.5h59v-8.5z" fill="#fa2222" fill-rule="evenodd"/><path clip-rule="evenodd" d="m1 3 28.0952 21.25-28.0952 21.25z" fill="#1d63f9" fill-rule="evenodd"/><g filter="url(#a)"><path clip-rule="evenodd" d="m10.8334 26.9575-4.12851 3.0231 1.57522-4.8939-4.12677-3.0255 5.10203-.0015 1.57803-4.893 1.578 4.893 5.102.0015-4.1267 3.0255 1.5752 4.8939z" fill="url(#b)" fill-rule="evenodd"/></g></g></svg>

<svg width="122" height="106" viewBox="0 0 122 106" fill="none" xmlns="http://www.w3.org/2000/svg">
<rect x="1.53036" y="3.53036" width="57.9393" height="41.4393" rx="3.7125" fill="white" stroke="#F5F5F5" stroke-width="1.06071"/>
<mask id="mask0" mask-type="alpha" maskUnits="userSpaceOnUse" x="1" y="3" width="59" height="43">
<rect x="1.53036" y="3.53036" width="57.9393" height="41.4393" rx="3.7125" fill="white" stroke="white" stroke-width="1.06071"/>
</mask>
<g mask="url(#mask0)">
<path fill-rule="evenodd" clip-rule="evenodd" d="M1 3H60V11.5H1V3ZM1 20H60V28.5H1V20ZM1 37V45.5H60V37H1Z" fill="#FA2222"/>
<path fill-rule="evenodd" clip-rule="evenodd" d="M1 3L29.0952 24.25L1 45.5V3Z" fill="#1D63F9"/>
<g filter="url(#filter0_d)">
<path fill-rule="evenodd" clip-rule="evenodd" d="M10.8334 26.9575L6.70489 29.9806L8.28011 25.0867L4.15334 22.0612L9.25537 22.0597L10.8334 17.1667L12.4114 22.0597L17.5134 22.0612L13.3867 25.0867L14.9619 29.9806L10.8334 26.9575Z" fill="url(#paint0_linear)"/>
</g>
</g>
<defs>
<filter id="filter0_d" x="4.15332" y="17.1667" width="13.3601" height="14.9353" filterUnits="userSpaceOnUse" color-interpolation-filters="sRGB">
<feFlood flood-opacity="0" result="BackgroundImageFix"/>
<feColorMatrix in="SourceAlpha" type="matrix" values="0 0 0 0 0 0 0 0 0 0 0 0 0 0 0 0 0 0 127 0"/>
<feOffset dy="2.12143"/>
<feColorMatrix type="matrix" values="0 0 0 0 0 0 0 0 0 0 0 0 0 0 0 0 0 0 0.06 0"/>
<feBlend mode="normal" in2="BackgroundImageFix" result="effect1_dropShadow"/>
<feBlend mode="normal" in="SourceGraphic" in2="effect1_dropShadow" result="shape"/>
</filter>
<linearGradient id="paint0_linear" x1="3.80957" y1="17.1667" x2="3.80957" y2="31.3334" gradientUnits="userSpaceOnUse">
<stop stop-color="white"/>
<stop offset="1" stop-color="#F0F0F0"/>
</linearGradient>
</defs>
</svg>
